icons/mockoon.svg

<svg width="16" height="16" viewBox="0 0 16 16" fill="none" xmlns="http://www.w3.org/2000/svg">
<path d="M8.39149 2.82224C9.22998 2.76746 10.0147 3.2167 10.744 3.65134C12.1491 4.48881 13.62 5.39974 14.6161 6.68747C15.1045 7.31915 15.0804 8.22692 14.5516 8.82224L10.9208 12.9101C10.5284 13.3519 10.1256 13.8022 9.6161 14.0859C8.74498 14.5708 7.66596 14.4983 6.74305 14.1318C5.82011 13.7652 5.01911 13.1338 4.23231 12.5117C3.48661 11.922 2.74071 11.3318 1.995 10.7422C1.74089 10.5412 1.48119 10.3353 1.30164 10.0605C0.889538 9.42945 0.98902 8.55052 1.35731 7.8906C1.86897 6.97424 2.81103 6.39049 3.56727 5.74997C4.29659 5.13222 5.07852 4.5859 5.87586 4.06736C6.63609 3.57281 7.44928 2.8841 8.39149 2.82224ZM9.74207 5.45408C8.3126 5.45408 7.15346 6.61255 7.15321 8.04197C7.15335 9.47147 8.31253 10.6308 9.74207 10.6308C11.1714 10.6305 12.3298 9.47128 12.33 8.04197C12.3297 6.61275 11.1713 5.45439 9.74207 5.45408ZM9.7411 6.90427C10.3694 6.90427 10.8797 7.41364 10.8798 8.04197C10.8798 8.67038 10.3695 9.17966 9.7411 9.17966C9.11288 9.17943 8.6034 8.67024 8.6034 8.04197C8.60351 7.41378 9.11294 6.9045 9.7411 6.90427Z" fill="#909090" fill-opacity="0.9"/>
</svg>

<svg xmlns="http://www.w3.org/2000/svg" width="16" height="16" fill="none" viewBox="0 0 16 16"><path fill="#909090" fill-opacity=".9" d="M8.391 2.822c.839-.055 1.624.395 2.353.83 1.405.837 2.876 1.748 3.872 3.035.489.632.464 1.54-.064 2.135L10.92 12.91c-.393.442-.795.892-1.305 1.176-.871.485-1.95.412-2.873.046-.923-.367-1.724-.998-2.51-1.62l-2.238-1.77c-.254-.2-.514-.407-.693-.682-.412-.63-.313-1.51.055-2.17.512-.916 1.454-1.5 2.21-2.14.73-.618 1.512-1.164 2.309-1.683.76-.494 1.573-1.183 2.515-1.245m1.351 2.632a2.589 2.589 0 1 0 0 5.177 2.589 2.589 0 0 0 0-5.177m0 1.45a1.139 1.139 0 1 1 0 2.278 1.139 1.139 0 0 1 0-2.278"/></svg>
